X:999
T:Geese in the Bog, The
T:Lad O'Beirne's Favourite
R:reel
H:see also jig#350
Z:id:hn-reel-999
M:C|
L:1/8
K:D
dF~F2 AFEF | dFBF A2Bc |1 dF~F2 AFEF | DBBA ~B3c :|2 (3dcB BA BAFE | DBBA ~B3c ||
d2fd edfe | defe faaf | d2fd edfd | BdcA ~B3c |
d2fd edfe | defe fa~a2 | abaf gfed | BdcA ~B3c ||
P:variations
|: dF~F2 AFEF | dFBF A2Bc |1 dF~F2 AFEF | DBBA ~B3c :|2 (3dcB cA BAFE | DBBA BAFA ||
d2fd edef | defd faaf | d2fd edfd | BdcA BAFA |
d2fd edef | defd fa~a2 | bfaf gfed | BdcA ~B3c ||

